X:12663
T:Paddy Kelly's
R:reel
S:
H:
N:
D:Milltown 1999 
Z:Adrian Scahill
M:4/4
L:1/8
K:C
dG~G2 G2Bd|cFFE FG (3ABc|dGG^F G3A|BdcA GABc|\
dGG^F GABd|cFFE FGAB|dGG^F G3A|BdcA GABc|\
dGG^F GABd|cFFE FABc|dGG^F G3A|BdcA GABc|\
dG (3GGG dG (3GGG|cF (3FFF cF (3FFF|dGG^F G3A|BdcA GABc||\
dgg^f g3e|fdcA FABc|dgg^f g3f|de^fg aggf|\
dgge a3g|fdcA FABc|dGG^F G3A|BdcA GABc:||
